X:2

T:Barney Brallaghan

M:9/8

L:1/8

R:Slip Jig

K:D

F2A ABA ABA|F2A ABA Bcd|F2A ABA ABA|B2e e2d cBA:|

|:f2a f2a fed|f2a f2a gfe|f2a f2a fed|g2f e2d cBA:|

|:f3a3d3|g2f e2d cBA|f2f efe d2A|Bcd A2G FED:|


 

BARNEY IS IN PRISON. Irish, Air (6/8 time). G Mixolydian. Standard tuning. One part. "There was a Ninety‑eight song to this air" (Joyce). Joyce (Old Irish Folk Music and Song), 1909; No. 594, pg. 309.

 

BARNEY LEAVE THE GIRLS ALONE. AKA and see “Polly Put the Kettle On [1].” Irish, Reel. C Major. Standard tuning. AABB. Hardings All Round Collection, 1905; No 70, pg. 22.

